X:40
T:I Buried My Wife And Danced On Her Grave
S:The Session: https://thesession.org/tunes/381#setting55357
C:Traditional
R:jig
K:Dmix
M:6/8
L:1/8
Q:1/4=113
|: "D"DDD F2G| "D"AdB cAF| "G"GGG BAG| "D"FFF "A"GEA|
| "D"DDD F2G| "D"AdB cAF|"G" GGG BAG|1 "A"AFD "D"D3:|2  "A"AFD "D"D2A|] 
|: "D"d2e fed| "D"faf "A"gfe| "D"d2e fed| "C"dcA dcA|
| "D"d2e fed| "D"faf "A"gfe| "D"dcA "G"BAG|1 "A"AFD "D"D2 A:|2  "A"AFD "D"D3|]

